svg/justvector/app_store.svg

<svg xmlns="http://www.w3.org/2000/svg" viewBox="0 0 100 100" enable-background="new 0 0 100 100"><path d="m5 59.14v-12.213c0-1.119.919-2.034 2.045-2.034h21.581l-9.396 16.283h-12.185c-1.126 0-2.045-.913-2.045-2.036m15.373 25.01l-6.887 4.666c-.927.63-1.582.231-1.454-.881l.919-7.984c.128-1.112 1.03-1.566 2-1.01l5.33 3.045c.974.558 1.014 1.536.087 2.164m1.654-4.5l-5.33-3.046c-.975-.557-1.318-1.805-.751-2.776l24.681-42.784c.56-.972 1.822-1.313 2.796-.749l5.33 3.038c.975.564 1.31 1.813.751 2.782l-24.681 42.787c-.559.97-1.822 1.303-2.796.748m18.784-18.472l9.396-16.283h5.41l7.63 16.283h-22.436m30.602 4.859c-2.133-1.065-12.76-25.476-15.484-31.845-2.725-6.369-10.955-23.323-8.293-24.642 1.894-.946 8.693 12.404 13.79 20.419 5.09 8.02 15.733 28.681 17.04 31.03 1.303 2.36-1.254 4.326-2.676 4.915-1.423.589-2.247 1.176-4.38.119m6.984 11.22l-3.212-5.05c-.663-1.05-.319-2.347.759-2.901l3.06-1.567c1.079-.549 2.429-.104 3 .995l2.533 4.85c.576 1.097.184 2.505-.855 3.125l-2.189 1.303c-1.039.628-2.437.286-3.1-.755m11.817 13.246c-.671-2.139-5.793-2.281-8.09-5.503-2.301-3.211-.399-4.865.4-5.629 9.3-5.215 7.686 11.132 7.686 11.132m4.786-31.361c0 1.123-.919 2.036-2.045 2.036h-10.803c-.119-.628-.312-1.256-.639-1.845-.28-.501-.991-1.852-1.982-3.736-1.43-2.719-3.483-6.607-5.681-10.702h19.1c1.126 0 2.045.915 2.045 2.034v12.213"/></svg>

<?xml version="1.0" encoding="iso-8859-1"?>
<!-- Generator: Adobe Illustrator 15.0.0, SVG Export Plug-In . SVG Version: 6.00 Build 0)  -->
<!DOCTYPE svg PUBLIC "-//W3C//DTD SVG 1.1//EN" "http://www.w3.org/Graphics/SVG/1.1/DTD/svg11.dtd">
<svg version="1.1" id="Icons" xmlns="http://www.w3.org/2000/svg" xmlns:xlink="http://www.w3.org/1999/xlink" x="0px" y="0px"
	 width="100px" height="100px" viewBox="0 0 100 100" style="enable-background:new 0 0 100 100;" xml:space="preserve">
<path id="App_Store" d="M5,59.139V46.926c0-1.119,0.919-2.034,2.045-2.034h21.581L19.23,61.175H7.045
	C5.919,61.175,5,60.262,5,59.139z M20.373,84.147l-6.887,4.666c-0.927,0.63-1.582,0.231-1.454-0.881l0.919-7.984
	c0.128-1.112,1.03-1.566,2.005-1.01l5.33,3.045C21.26,82.541,21.3,83.519,20.373,84.147z M22.027,79.647l-5.33-3.046
	c-0.975-0.557-1.318-1.805-0.751-2.776l24.681-42.784c0.56-0.972,1.822-1.313,2.796-0.749l5.33,3.038
	c0.975,0.564,1.31,1.813,0.751,2.782L24.823,78.899C24.264,79.869,23.001,80.202,22.027,79.647z M40.811,61.175l9.396-16.283h5.41
	l7.63,16.283H40.811z M71.413,66.034c-2.133-1.065-12.76-25.476-15.484-31.845c-2.725-6.369-10.955-23.323-8.293-24.642
	c1.894-0.946,8.693,12.404,13.79,20.419c5.09,8.015,15.733,28.681,17.043,31.034c1.303,2.36-1.254,4.326-2.676,4.915
	C74.37,66.504,73.546,67.091,71.413,66.034z M78.397,77.254l-3.212-5.05c-0.663-1.05-0.319-2.347,0.759-2.901l3.06-1.567
	c1.079-0.549,2.429-0.104,3.004,0.995l2.533,4.85c0.576,1.097,0.184,2.505-0.855,3.125l-2.189,1.303
	C80.458,78.637,79.06,78.295,78.397,77.254z M90.214,90.5c-0.671-2.139-5.793-2.281-8.086-5.503c-2.301-3.211-0.399-4.865,0.4-5.629
	C91.828,74.153,90.214,90.5,90.214,90.5z M95,59.139c0,1.123-0.919,2.036-2.045,2.036H82.152c-0.119-0.628-0.312-1.256-0.639-1.845
	c-0.28-0.501-0.991-1.852-1.982-3.736c-1.43-2.719-3.483-6.607-5.681-10.702h19.104c1.126,0,2.045,0.915,2.045,2.034V59.139z"/>
</svg>
